packages/icons/24x24/add.svg

<?xml version="1.0" encoding="UTF-8"?>
<svg width="24px" height="24px" viewBox="0 0 24 24" version="1.1" xmlns="http://www.w3.org/2000/svg" xmlns:xlink="http://www.w3.org/1999/xlink">
    <title>Icons /  24x24 / Add</title>
    <defs>
        <path d="M11.9999994,5 C12.5128358,5 12.9355072,5.38604019 12.9932723,5.88337887 L12.9999994,6 L12.9999994,11.001 L17.9498731,11 C18.5021578,10.9997247 18.9500963,11.4472165 18.9503723,11.9995012 C18.9506276,12.512337 18.5647982,12.9352008 18.0674884,12.993214 L17.9508707,13 L12.9999994,13.001 L12.9999994,18 C12.9999994,18.5522847 12.5522847,19 11.9999994,19 C11.4871642,19 11.0644928,18.6139598 11.0067277,18.1166211 L10.9999994,18 L10.9999994,13.002 L6.00049878,13.004963 C5.44821409,13.0052383 5.00027559,12.5577465 4.99999936,12.0054618 C4.99974433,11.492626 5.38557366,11.0697622 5.88288347,11.011749 L5.99950122,11.0049631 L10.9999994,11.002 L10.9999994,6 C10.9999994,5.44771525 11.4477153,5 11.9999994,5 Z" id="path-1"></path>
    </defs>
    <g id="Icons-/--24x24-/-Add" stroke="none" stroke-width="1" fill="none" fill-rule="evenodd">
        <rect id="base" fill-opacity="0" fill="#FFFFFF" x="0" y="0" width="24" height="24"></rect>
        <mask id="mask-2" fill="white">
            <use xlink:href="#path-1"></use>
        </mask>
        <use id="Add" fill="#1E0A46" fill-rule="nonzero" xlink:href="#path-1"></use>
        <rect id="Color" fill="#1E0A46" mask="url(#mask-2)" x="0" y="0" width="24" height="24"></rect>
    </g>
</svg>

<svg width="24" height="24" class="customer-ui__icon" xmlns="http://www.w3.org/2000/svg" xmlns:xlink="http://www.w3.org/1999/xlink">
    <title>Add</title>
  <defs>
    <path d="M12 5a1 1 0 01.993.883L13 6v5.001L17.95 11a1 1 0 01.117 1.993l-.116.007-4.951.001V18a1 1 0 01-1.993.117L11 18v-4.998l-5 .003a1 1 0 01-.117-1.993L6 11.005l5-.003V6a1 1 0 011-1z" id="a"/>
  </defs>
  <g stroke="none" stroke-width="1" fill="inherit" fill-rule="evenodd">
    <path fill="none" d="M0 0h24v24H0z"/>
    <mask id="b" fill="#fff">
      <use xlink:href="#a"/>
    </mask>
    <use fill="#1E0A46" fill-rule="nonzero" xlink:href="#a"/>
    <path fill="#1E0A46" mask="url(#b)" d="M0 0h24v24H0z"/>
  </g>
</svg>
